src/next/res/sx03201.svg

<svg height="16" width="16" xmlns="http://www.w3.org/2000/svg" xmlns:xlink="http://www.w3.org/1999/xlink"><linearGradient id="a" gradientTransform="matrix(.1133598 0 0 .1691546 .642795 -68.95463)" gradientUnits="userSpaceOnUse" x1="347.18839" x2="347.18839" xlink:href="#d" y1="833.28876" y2="691.40674"/><linearGradient id="b" gradientTransform="matrix(.1133598 0 0 .1691546 -39.357205 -108.95463)" gradientUnits="userSpaceOnUse" x1="347.18839" x2="347.18839" xlink:href="#d" y1="833.28876" y2="691.40674"/><filter id="c"><feGaussianBlur stdDeviation="2.4"/></filter><linearGradient id="d" gradientTransform="matrix(.1133598 0 0 .1691546 80.271445 167.92147)" gradientUnits="userSpaceOnUse" x1="347.18839" x2="347.18839" y1="833.28876" y2="691.40674"><stop offset="0" stop-color="#cbcbcd"/><stop offset=".5" stop-color="#e0e0e2"/><stop offset="1" stop-color="#fff"/></linearGradient><g transform="scale(.125)"><g><path d="m125.48062 258.59039h76.29606c1.02599 0 1.85197.97507 1.85197 2.18627v81.34174c0 1.21119-.82598 2.18627-1.85197 2.18627h-76.29606c-1.02599 0-1.85197-.97508-1.85197-2.18627v-81.34174c0-1.2112.82598-2.18627 1.85197-2.18627z" filter="url(#c)" opacity=".5" transform="matrix(1 0 0 .9333333 -79.62865 -197.35102)"/><path d="m48 48h72v72h-72z" fill="url(#a)"/><path d="m48 72h72v48h-72z" fill="#fff"/><g fill="#cacacc"><path d="m56 80h56v8h-56z"/><path d="m56 96h56v8h-56z"/></g></g><g><path d="m125.48062 258.59039h76.29606c1.02599 0 1.85197.97507 1.85197 2.18627v81.34174c0 1.21119-.82598 2.18627-1.85197 2.18627h-76.29606c-1.02599 0-1.85197-.97508-1.85197-2.18627v-81.34174c0-1.2112.82598-2.18627 1.85197-2.18627z" filter="url(#c)" opacity=".5" transform="matrix(1 0 0 .9333333 -119.62865 -237.35102)"/><path d="m8 8h72v72h-72z" fill="url(#b)"/><path d="m8 32h72v48h-72z" fill="#fff"/><g fill="#cacacc"><path d="m16 40h56v8h-56z"/><path d="m16 56h56v8h-56z"/></g></g></g></svg>

<?xml version="1.0" encoding="UTF-8" standalone="no"?>
<svg
   xmlns:dc="http://purl.org/dc/elements/1.1/"
   xmlns:cc="http://creativecommons.org/ns#"
   xmlns:rdf="http://www.w3.org/1999/02/22-rdf-syntax-ns#"
   xmlns:svg="http://www.w3.org/2000/svg"
   xmlns="http://www.w3.org/2000/svg"
   xmlns:xlink="http://www.w3.org/1999/xlink"
   xmlns:sodipodi="http://sodipodi.sourceforge.net/DTD/sodipodi-0.dtd"
   xmlns:inkscape="http://www.inkscape.org/namespaces/inkscape"
   height="16"
   width="16"
   version="1.1"
   id="svg260"
   sodipodi:docname="sx03201.svg"
   inkscape:version="0.92.4 (unknown)">
  <metadata
     id="metadata266">
    <rdf:RDF>
      <cc:Work
         rdf:about="">
        <dc:format>image/svg+xml</dc:format>
        <dc:type
           rdf:resource="http://purl.org/dc/dcmitype/StillImage" />
        <dc:title></dc:title>
      </cc:Work>
    </rdf:RDF>
  </metadata>
  <defs
     id="defs264">
    <linearGradient
       inkscape:collect="always"
       xlink:href="#b"
       id="linearGradient5005"
       gradientUnits="userSpaceOnUse"
       gradientTransform="matrix(0.1133598,0,0,0.1691546,0.642795,-68.95463)"
       x1="347.18839"
       y1="833.28876"
       x2="347.18839"
       y2="691.40674" />
    <linearGradient
       inkscape:collect="always"
       xlink:href="#b"
       id="linearGradient5007"
       gradientUnits="userSpaceOnUse"
       gradientTransform="matrix(0.1133598,0,0,0.1691546,-39.357205,-108.95463)"
       x1="347.18839"
       y1="833.28876"
       x2="347.18839"
       y2="691.40674" />
  </defs>
  <sodipodi:namedview
     pagecolor="#ffffff"
     bordercolor="#666666"
     borderopacity="1"
     objecttolerance="10"
     gridtolerance="10"
     guidetolerance="10"
     inkscape:pageopacity="0"
     inkscape:pageshadow="2"
     inkscape:window-width="640"
     inkscape:window-height="480"
     id="namedview262"
     showgrid="true"
     inkscape:zoom="43.84062"
     inkscape:cx="12.691796"
     inkscape:cy="13.177638"
     inkscape:current-layer="g5287">
    <inkscape:grid
       type="xygrid"
       id="grid5270" />
  </sodipodi:namedview>
  <filter
     id="a">
    <feGaussianBlur
       stdDeviation="2.4"
       id="feGaussianBlur2" />
  </filter>
  <linearGradient
     id="b"
     gradientTransform="matrix(0.1133598,0,0,0.1691546,80.271445,167.92147)"
     gradientUnits="userSpaceOnUse"
     x1="347.18839"
     x2="347.18839"
     y1="833.28876"
     y2="691.40674">
    <stop
       offset="0"
       stop-color="#cbcbcd"
       id="stop5" />
    <stop
       offset=".5"
       stop-color="#e0e0e2"
       id="stop7" />
    <stop
       offset="1"
       stop-color="#fff"
       id="stop9" />
  </linearGradient>
  <g
     id="g5287"
     transform="scale(0.125)">
    <g
       id="g5268">
      <path
         style="opacity:0.5;filter:url(#a)"
         inkscape:connector-curvature="0"
         id="path234"
         transform="matrix(1,0,0,0.9333333,-79.62865,-197.35102)"
         d="m 125.48062,258.59039 h 76.29606 c 1.02599,0 1.85197,0.97507 1.85197,2.18627 v 81.34174 c 0,1.21119 -0.82598,2.18627 -1.85197,2.18627 h -76.29606 c -1.02599,0 -1.85197,-0.97508 -1.85197,-2.18627 v -81.34174 c 0,-1.2112 0.82598,-2.18627 1.85197,-2.18627 z" />
      <path
         inkscape:connector-curvature="0"
         style="fill:url(#linearGradient5005)"
         id="path236"
         d="m 48,48 h 72 v 72 H 48 Z" />
      <path
         style="fill:#ffffff"
         inkscape:connector-curvature="0"
         id="path238"
         d="m 48,72 h 72 v 48 H 48 Z" />
      <path
         style="fill:#cacacc"
         inkscape:connector-curvature="0"
         id="path240"
         d="m 56,80 h 56 v 8 H 56 Z" />
      <path
         style="fill:#cacacc"
         inkscape:connector-curvature="0"
         id="path242"
         d="m 56,96 h 56 v 8 H 56 Z" />
    </g>
    <g
       id="g5261">
      <path
         d="m 125.48062,258.59039 h 76.29606 c 1.02599,0 1.85197,0.97507 1.85197,2.18627 v 81.34174 c 0,1.21119 -0.82598,2.18627 -1.85197,2.18627 h -76.29606 c -1.02599,0 -1.85197,-0.97508 -1.85197,-2.18627 v -81.34174 c 0,-1.2112 0.82598,-2.18627 1.85197,-2.18627 z"
         transform="matrix(1,0,0,0.9333333,-119.62865,-237.35102)"
         id="path244"
         inkscape:connector-curvature="0"
         style="opacity:0.5;filter:url(#a)" />
      <path
         d="M 8,8 H 80 V 80 H 8 Z"
         id="path246"
         style="fill:url(#linearGradient5007)"
         inkscape:connector-curvature="0" />
      <path
         d="M 8,32 H 80 V 80 H 8 Z"
         id="path248"
         inkscape:connector-curvature="0"
         style="fill:#ffffff" />
      <path
         style="fill:#cacacc"
         inkscape:connector-curvature="0"
         id="path250"
         d="m 16,40 h 56 v 8 H 16 Z" />
      <path
         style="fill:#cacacc"
         inkscape:connector-curvature="0"
         id="path252"
         d="m 16,56 h 56 v 8 H 16 Z" />
    </g>
  </g>
</svg>
